X: 10
T:Home Ruler, The
T:Daniel O'Connell, The Home Ruler
M:4/4
L:1/8
C:Frank McCollum of Ballycastle
R:Hornpipe
K:D
FE[|:D2FA D2FA|dfed BAdB|~A3B AFDF|GEFD B,DA,B,|!
D2FA DAFA|dfed B2dB|~A3B AFEG|1F2D2 D2FE:|2F2D2 D2dB|!
|:Addc d2df|afbf afed|efed BAde|fded BdAB|!
d2dc d2df|afbf afed|efed BAdB|1AFEF D2dB:|2AFEF D2FE|]!
